X:1
T:The Good Time Coming
T:The Good Time Coming
T:Winfield Scott Weeden
T:J. Alex Jenkins, 1896
T:Public Domain Courtesy of the Cyber Hymnal™
T:Public Domain Courtesy of the Cyber Hymnal™
C:Winfield Scott Weeden
Z:Public Domain
Z:Courtesy of the Cyber Hymnal™
%%score ( 1 2 ) ( 3 4 )
L:1/8
Q:1/4=93
M:4/4
K:G
V:1 treble 
V:2 treble 
V:3 bass 
V:4 bass 
V:1
 DD | D[GB][FB][EB] [DB]2 [DG]>[DG] | [EA][EG][DF][CE] [B,D]2 D>D x/ | %3
w: 1.~What tho’|sad may be my plight, ’Mid the|dark- ness of the night, While I|
w: 2.~Here no|mor- tal friend will stay, And up-|on the lone- ly way, Oh, how|
w: 3.~Let the|temp- ter in his wrath Set his|min- ions round my path, Let them|
w: 4.~When I|reach the ri- ver side, See the|fierce- ly roll- ing tide, And the|
 [DG][B,G][CG][B,G] [CF]2 [^CG]2 | [DA]6 [GB][Fc] | [Gd][DG][EG][FA] [GB]2 [EA][EB] | %6
w: grope be- neath the star- less|sky; And tho’|light- nings round me play, Rough and|
w: oft I press with many a|sigh; Con- stant|comes my Sav- ior’s voice, “Wea- ry|
w: seek my wan- ing strength to|try; Need I|care how strong they be? Je- sus|
w: rag- ing bil- lows toss- ing|high, Then my|joy- ful cry will be, “Je- sus,|
 [Ec][CE][CE][CF] [B,G]2 [DF][CE] | [B,D][B,G][CG][^CA] [DB]2 [DA]2 | [DG]6 ||"^Refrain" [GB][Gc] | %10
w: stor- my be my way, There’s a|good time com- ing by and|by.||
w: pil- grim, now re- joice, There’s a|good time com- ing by and|by.”|For by|
w: whis- pers ten- der- ly, “There’s a|good time com- ing by and|by.”||
w: Sav- ior, pi- lot me, For the|good time now is draw- ing|nigh.”||
 d4- [Gd][GB][FA][FB] | G6 [DA][GB] | c3 z c [GB]2 [Gd]2 | A6 [GB][Fc] | %14
w: ||||
w: faith I see the strand,|* Where the|beck- oning an- gels|stand, With a|
w: ||||
w: ||||
 [Gd][DG][EG][FA] [GB]2 [EA][EB] | [Ec][CE][CE][CF] [B,G]2 [DF][CE] | %16
w: ||
w: robe and crown for me, Mine thro’|all e- ter- ni- ty; There’s a|
w: ||
w: ||
 [B,D][B,G][CG][^CA] [DB]2 [DA]2 | [DG]6 |] %18
w: ||
w: good time com- ing by and|by.|
w: ||
w: ||
V:2
 DD | D x7 | x6 D>D x/ | x8 | x8 | x8 | x8 | x8 | x6 || x2 | G2 F2 x4 | (G2 FE D2) x2 | %12
 (G2 G2) x5 | (F2 G2 A2) x2 | x8 | x8 | x8 | x6 |] %18
V:3
 [G,,B,][G,,B,] | [G,,B,][G,,D,][G,,D,][G,,G,] [G,,G,]2 [G,B,]>[G,B,] | %2
 [C,C][C,C]G,G, F,/ G,2 [G,B,]>[G,B,] | [G,B,]G,[E,G,][D,G,] [D,A,]2 [E,A,]2 | [D,F,]6 [G,D][A,D] | %5
 [B,D][G,B,][E,B,][D,D] [G,D]2 [C,A,][B,,^G,] | [A,,A,][A,,A,][D,F,][^D,A,] [E,G,]2 [B,,G,][C,G,] | %7
 [D,G,][D,G,][E,G,][E,G,] [D,G,]2 (F,C) | [G,,G,B,]6 || G,[G,A,] | %10
 ([G,B,]2 [A,C]2 [B,D])[F,D][D,C][D,D] | (B,2 DC B,2) [F,C][=F,D] | %12
 ([E,C]2 [_E,C]2) [D,D]2 [B,,D]2 x | ([D,D]2 [E,^C]2 [F,D]2) [G,D][A,D] | %14
 [B,D][G,B,][E,B,][D,D] [G,D]2 [C,A,][B,,^G,] | [A,,A,][A,,A,][D,F,][^D,A,] [E,G,]2 [B,,G,][C,G,] | %16
 [D,G,][D,G,][E,G,][E,G,] [D,G,]2 (F,C) | [G,,G,B,]6 |] %18
V:4
 x2 | x8 | x2 (C,/D,/)E,/ G,2 x3 | x G, x6 | x8 | x8 | x8 | x6 D,2 | x6 || G, x | x8 | G,6 x2 | %12
 x9 | x8 | x8 | x8 | x6 D,2 | x6 |] %18

